icons/circle/48/happy-wheels.svg

<?xml version="1.0" encoding="UTF-8" standalone="no"?>
<svg
   xmlns:dc="http://purl.org/dc/elements/1.1/"
   xmlns:cc="http://creativecommons.org/ns#"
   xmlns:rdf="http://www.w3.org/1999/02/22-rdf-syntax-ns#"
   xmlns:svg="http://www.w3.org/2000/svg"
   xmlns="http://www.w3.org/2000/svg"
   xmlns:sodipodi="http://sodipodi.sourceforge.net/DTD/sodipodi-0.dtd"
   xmlns:inkscape="http://www.inkscape.org/namespaces/inkscape"
   version="1.1"
   viewBox="0 0 48 48"
   id="svg23"
   sodipodi:docname="happy-wheels.svg"
   inkscape:version="0.92.4 (5da689c313, 2019-01-14)">
  <metadata
     id="metadata27">
    <rdf:RDF>
      <cc:Work
         rdf:about="">
        <dc:format>image/svg+xml</dc:format>
        <dc:type
           rdf:resource="http://purl.org/dc/dcmitype/StillImage" />
        <dc:title></dc:title>
      </cc:Work>
    </rdf:RDF>
  </metadata>
  <sodipodi:namedview
     pagecolor="#ffffff"
     bordercolor="#666666"
     borderopacity="1"
     objecttolerance="10"
     gridtolerance="10"
     guidetolerance="10"
     inkscape:pageopacity="0"
     inkscape:pageshadow="2"
     inkscape:window-width="1280"
     inkscape:window-height="753"
     id="namedview25"
     showgrid="true"
     inkscape:zoom="19.666667"
     inkscape:cx="28.797564"
     inkscape:cy="17.809793"
     inkscape:window-x="-6"
     inkscape:window-y="-6"
     inkscape:window-maximized="1"
     inkscape:current-layer="svg23">
    <inkscape:grid
       type="xygrid"
       id="grid848" />
  </sodipodi:namedview>
  <defs
     id="defs7">
    <linearGradient
       id="bg"
       x2="0"
       y1="1"
       y2="47"
       gradientUnits="userSpaceOnUse">
      <stop
         style="stop-color:#83baf9;stop-opacity:1"
         offset="0"
         id="stop2" />
      <stop
         style="stop-color:#f98080;stop-opacity:1"
         offset="1"
         id="stop4" />
    </linearGradient>
  </defs>
  <path
     d="m36.31 5c5.859 4.062 9.688 10.831 9.688 18.5 0 12.426-10.07 22.5-22.5 22.5-7.669 0-14.438-3.828-18.5-9.688 1.037 1.822 2.306 3.499 3.781 4.969 4.085 3.712 9.514 5.969 15.469 5.969 12.703 0 23-10.298 23-23 0-5.954-2.256-11.384-5.969-15.469-1.469-1.475-3.147-2.744-4.969-3.781zm4.969 3.781c3.854 4.113 6.219 9.637 6.219 15.719 0 12.703-10.297 23-23 23-6.081 0-11.606-2.364-15.719-6.219 4.16 4.144 9.883 6.719 16.219 6.719 12.703 0 23-10.298 23-23 0-6.335-2.575-12.06-6.719-16.219z"
     style="opacity:.05"
     id="path9" />
  <path
     d="m41.28 8.781c3.712 4.085 5.969 9.514 5.969 15.469 0 12.703-10.297 23-23 23-5.954 0-11.384-2.256-15.469-5.969 4.113 3.854 9.637 6.219 15.719 6.219 12.703 0 23-10.298 23-23 0-6.081-2.364-11.606-6.219-15.719z"
     style="opacity:.1"
     id="path11" />
  <path
     d="m31.25 2.375c8.615 3.154 14.75 11.417 14.75 21.13 0 12.426-10.07 22.5-22.5 22.5-9.708 0-17.971-6.135-21.12-14.75a23 23 0 0 0 44.875-7 23 23 0 0 0-16-21.875z"
     style="opacity:.2"
     id="path13" />
  <circle
     cx="24"
     cy="24"
     r="23"
     style="fill:url(#bg)"
     id="circle15" />
  <path
     d="m40.03 7.531c3.712 4.084 5.969 9.514 5.969 15.469 0 12.703-10.297 23-23 23-5.954 0-11.384-2.256-15.469-5.969 4.178 4.291 10.01 6.969 16.469 6.969 12.703 0 23-10.298 23-23 0-6.462-2.677-12.291-6.969-16.469z"
     style="opacity:.1"
     id="path17" />
  <path
     style="color:#000000;font-style:normal;font-variant:normal;font-weight:normal;font-stretch:normal;font-size:medium;line-height:normal;font-family:sans-serif;font-variant-ligatures:normal;font-variant-position:normal;font-variant-caps:normal;font-variant-numeric:normal;font-variant-alternates:normal;font-feature-settings:normal;text-indent:0;text-align:start;text-decoration:none;text-decoration-line:none;text-decoration-style:solid;text-decoration-color:#000000;letter-spacing:normal;word-spacing:normal;text-transform:none;writing-mode:lr-tb;direction:ltr;text-orientation:mixed;dominant-baseline:auto;baseline-shift:baseline;text-anchor:start;white-space:normal;shape-padding:0;clip-rule:nonzero;display:inline;overflow:visible;visibility:visible;opacity:0.1;isolation:auto;mix-blend-mode:normal;color-interpolation:sRGB;color-interpolation-filters:linearRGB;solid-color:#000000;solid-opacity:1;vector-effect:none;fill-opacity:1;fill-rule:nonzero;stroke:none;stroke-width:2;stroke-linecap:round;stroke-linejoin:round;stroke-miterlimit:4;stroke-dasharray:none;stroke-dashoffset:0;stroke-opacity:1;paint-order:stroke fill markers;color-rendering:auto;image-rendering:auto;shape-rendering:auto;text-rendering:auto;enable-background:accumulate"
     d="m 24.996106,12.999999 c -5.057912,0.277249 -8.903673,4.066416 -8.996094,9.5 -1.6e-5,0.0033 -1.6e-5,0.0065 0,0.0098 0,1.490201 0,-0.0098 0,1.486329 -6e-6,0.002 -6e-6,0.0039 0,0.0059 0.0031,1.110627 0.386442,2.184022 1.011719,3.146485 9.26e-4,0.0053 0.0039,0.02344 0.0039,0.02344 0.0081,0.04898 0.01987,0.09729 0.03516,0.144531 l 0.949221,2.845625 V 31 c 0,0.283546 0.05174,0.52004 0.105469,0.724609 6.56e-4,0.0026 0.0013,0.0052 0.002,0.0078 0.01281,0.04707 0.02443,0.08693 0.03516,0.121094 4.26e-4,0.0014 0.0015,0.0025 0.002,0.0039 5.2e-4,0.0017 0.0014,0.0042 0.002,0.0059 0.415624,1.353392 1.487202,2.464126 2.433594,3.373047 0.948729,0.911165 1.81836,1.5625 1.81836,1.5625 0.173343,0.130517 0.384432,0.201118 0.601417,0.20115 h 4 c 0.217037,-7e-6 0.428182,-0.07062 0.601562,-0.201172 0,0 0.869631,-0.651336 1.81836,-1.5625 0.946392,-0.908921 2.01797,-2.019655 2.433594,-3.373047 l 0.002,-0.0059 c 0.01098,-0.03491 0.02386,-0.07632 0.03711,-0.125 6.77e-4,-0.0026 0.0013,-0.0052 0.002,-0.0078 C 31.948268,31.52004 32.000012,31.283546 32.000012,31 v -0.837891 l 0.949219,-2.845703 c 0.01614,-0.04846 0.02855,-0.09808 0.03711,-0.148437 0,0 -4.1e-5,-0.0037 0,-0.0039 0.629586,-0.968165 1.014051,-2.046567 1.013671,-3.164069 3.1e-5,-0.0046 3.1e-5,-0.0091 0,-0.01367 v -1.484376 -0.002 c -0.471899,-5.172113 -3.636002,-9.419118 -8.998047,-9.5 -0.002,-6e-6 -0.0039,-6e-6 -0.0059,0 z"
     id="path893-3-7"
     inkscape:connector-curvature="0"
     sodipodi:nodetypes="cccccccccscccccsccccsccccsccccccccccc" />
  <path
     style="color:#000000;font-style:normal;font-variant:normal;font-weight:normal;font-stretch:normal;font-size:medium;line-height:normal;font-family:sans-serif;font-variant-ligatures:normal;font-variant-position:normal;font-variant-caps:normal;font-variant-numeric:normal;font-variant-alternates:normal;font-feature-settings:normal;text-indent:0;text-align:start;text-decoration:none;text-decoration-line:none;text-decoration-style:solid;text-decoration-color:#000000;letter-spacing:normal;word-spacing:normal;text-transform:none;writing-mode:lr-tb;direction:ltr;text-orientation:mixed;dominant-baseline:auto;baseline-shift:baseline;text-anchor:start;white-space:normal;shape-padding:0;clip-rule:nonzero;display:inline;overflow:visible;visibility:visible;opacity:1;isolation:auto;mix-blend-mode:normal;color-interpolation:sRGB;color-interpolation-filters:linearRGB;solid-color:#000000;solid-opacity:1;vector-effect:none;fill:#2d2d2d;fill-opacity:1;fill-rule:nonzero;stroke:none;stroke-width:2;stroke-linecap:round;stroke-linejoin:round;stroke-miterlimit:4;stroke-dasharray:none;stroke-dashoffset:0;stroke-opacity:1;paint-order:stroke fill markers;color-rendering:auto;image-rendering:auto;shape-rendering:auto;text-rendering:auto;enable-background:accumulate"
     d="M 23.996094,12 C 18.938182,12.277249 15.092421,16.066416 15,21.5 c -1.6e-5,0.0033 -1.6e-5,0.0065 0,0.0098 0,1.4902 0,-0.0098 0,1.486328 -6e-6,0.002 -6e-6,0.0039 0,0.0059 0.0031,1.110627 0.386442,2.184022 1.011719,3.146485 9.26e-4,0.0053 0.0039,0.02344 0.0039,0.02344 0.0081,0.04898 0.01987,0.09729 0.03516,0.144531 L 17,29.162109 V 30 c 0,0.283546 0.05174,0.52004 0.105469,0.724609 6.56e-4,0.0026 0.0013,0.0052 0.002,0.0078 0.01281,0.04707 0.02443,0.08693 0.03516,0.121094 4.26e-4,0.0014 0.0015,0.0025 0.002,0.0039 5.2e-4,0.0017 0.0014,0.0042 0.002,0.0059 0.415624,1.353392 1.487202,2.464126 2.433594,3.373047 0.948729,0.911165 1.81836,1.5625 1.81836,1.5625 C 21.571926,35.929367 21.783015,35.999968 22,36 h 4 c 0.217037,-7e-6 0.428182,-0.07062 0.601562,-0.201172 0,0 0.869631,-0.651335 1.81836,-1.5625 0.946392,-0.908921 2.01797,-2.019655 2.433594,-3.373047 l 0.002,-0.0059 c 0.01098,-0.03491 0.02386,-0.07632 0.03711,-0.125 6.77e-4,-0.0026 0.0013,-0.0052 0.002,-0.0078 C 30.948258,30.52004 31,30.283546 31,30 v -0.837891 l 0.949219,-2.845703 c 0.01614,-0.04846 0.02855,-0.09808 0.03711,-0.148437 0,0 -4.1e-5,-0.0037 0,-0.0039 C 32.615915,25.195904 33.00038,24.117502 33,23 c 3.1e-5,-0.0046 3.1e-5,-0.0091 0,-0.01367 V 21.501955 21.5 c -0.471899,-5.172113 -3.636002,-9.419118 -8.998047,-9.5 -0.002,-6e-6 -0.0039,-6e-6 -0.0059,0 z"
     id="path893-3"
     inkscape:connector-curvature="0"
     sodipodi:nodetypes="cccccccccscccccsccccsccccsccccccccccc" />
  <ellipse
     style="opacity:1;vector-effect:none;fill:#f9f9f9;fill-opacity:1;paint-order:stroke fill markers"
     id="path893"
     cx="24"
     cy="21.5"
     rx="8"
     ry="8.5" />
  <ellipse
     style="opacity:1;vector-effect:none;fill:#454545;fill-opacity:1;paint-order:stroke fill markers"
     id="path895"
     cx="24"
     cy="23"
     rx="8"
     ry="6" />
  <path
     style="fill:#fdcb98"
     d="M 24 19 C 20 19 18 21 18 22 L 18 25 C 18 25 18.000066 24 17.199219 24 C 16.593286 24 17 26 17 26 L 18 29 L 18 30 C 18 32 22 35 22 35 L 26 35 C 26 35 30 32 30 30 L 30 29 L 31 26 C 31 26 31.406714 24 30.800781 24 C 29.999934 24 30 25 30 25 L 30 22 C 30 21 28 19 24 19 z "
     id="path850" />
  <path
     style="fill:#e9ba95"
     d="M 23 21 C 23 21 23.582701 21.753906 24 21.753906 C 24.417299 21.753906 25 21 25 21 C 25 21 24.356074 21.375 24 21.375 C 23.643926 21.375 23 21 23 21 z M 22 22 C 22 22 23.288943 22.742188 24 22.742188 C 24.711057 22.742188 26 22 26 22 C 26 22 24.675596 22.328125 24 22.328125 C 23.324404 22.328125 22 22 22 22 z M 25.513672 27.839844 L 25.544922 29 L 26.570312 30 L 25.513672 27.839844 z M 22.486328 27.865234 L 21.402344 30 L 22.435547 29 L 22.486328 27.865234 z M 18 28 L 18 30 C 18 31 19 32.25 20 33.25 L 20 30 C 20 30 20 28 18 28 z M 30 28 C 28 28 28 30 28 30 L 28 33.25 C 29 32.25 30 31 30 30 L 30 28 z M 24 31.371094 C 22.60631 31.364539 22.335938 32.539062 22.335938 32.539062 C 22.335938 32.539062 23.345964 32.272597 24 32.279297 C 24.654036 32.285985 25.744141 32.486328 25.744141 32.486328 C 25.744141 32.486328 25.39369 31.377694 24 31.371094 z "
     id="path948" />
  <path
     style="opacity:1;vector-effect:none;fill:#949596;fill-opacity:1;paint-order:stroke fill markers"
     d="M 19 20.496094 C 18.344836 21.029523 18 21.595289 18 22 L 18 25 L 18 29 L 18 30 C 18 30.646512 18.434272 31.394847 19 32.115234 L 19 20.496094 z M 29 20.496094 L 29 32.115234 C 29.565728 31.394847 30 30.646512 30 30 L 30 29 L 30 25 L 30 22 C 30 21.595289 29.655164 21.029523 29 20.496094 z "
     id="rect870" />
  <path
     style="fill:#c79b68"
     d="M 20 23.316406 L 19 24 L 19 25 L 20 27 L 22 27 L 23 26 L 23.550781 24.5 L 20 23.316406 z M 28 23.316406 L 24.449219 24.5 L 25 26 L 26 27 L 28 27 L 29 25 L 29 24 L 28 23.316406 z M 25 28.261719 L 24 28.53125 L 23 28.279297 L 22.435547 29 L 23 30 L 25 30 L 25.544922 29 L 25 28.261719 z "
     id="path971" />
  <path
     style="fill:#d6d6d6;fill-opacity:1"
     d="m 22,13.277344 c -1.094457,0.298877 -2.116904,0.840721 -3,1.589844 V 16 c 0,0 1,-1 3,-1 0,-1 0,-1.722656 0,-1.722656 z m 4,0.0039 c 0,0 0,0.71875 0,1.71875 2,0 3,1 3,1 v -1.126953 c -0.882934,-0.74982 -1.905392,-1.292335 -3,-1.591797 z"
     id="path897"
     inkscape:connector-curvature="0"
     sodipodi:nodetypes="cccccccccc" />
  <path
     style="fill:#71513b"
     d="M 24,29.330583 C 23.467037,29.331232 22.435659,29 22.435659,29 22.435659,29 21,30 21,31 c 0,0.629631 0.276124,0.586733 0.276124,0.586733 0,0 1.260865,-1.183058 2.723876,-1.159535 1.564389,0.02515 2.786164,1.168524 2.786164,1.168524 0,0 0.213836,0.01975 0.213836,-0.595722 0,-1 -1.454269,-2 -1.454269,-2 0,0 -1.018836,0.329942 -1.545731,0.330583 z"
     id="path990"
     inkscape:connector-curvature="0"
     sodipodi:nodetypes="scscscscs" />
  <path
     style="fill:#71513b"
     d="M 20.332031 23 C 19.712963 23 19 24 19 24 C 19 24 19.521183 23.644907 20 23.640625 C 21 23.631725 22 24.5 22 24.5 L 23.550781 24.5 C 23.550781 24.5 21.455276 23 20.332031 23 z M 27.667969 23 C 26.544724 23 24.449219 24.5 24.449219 24.5 L 26 24.5 C 26 24.5 27 23.631725 28 23.640625 C 28.478817 23.644907 29 24 29 24 C 29 24 28.287037 23 27.667969 23 z "
     id="path992" />
  <circle
     style="opacity:1;vector-effect:none;fill:#1b4c96;fill-opacity:1;paint-order:stroke fill markers"
     id="path996"
     cx="21.5"
     cy="25.5"
     r="0.5" />
  <circle
     style="opacity:1;vector-effect:none;fill:#1b4c96;fill-opacity:1;paint-order:stroke fill markers"
     id="path996-7"
     cx="-26.5"
     cy="25.5"
     r="0.5"
     transform="scale(-1,1)" />
  <path
     style="fill:#2d2d2d;stroke-width:0.99559659;fill-opacity:1"
     d="M 21 24.683594 C 20.338675 24.687694 20 25.726562 20 25.726562 C 20 25.726562 20.820382 25.387307 21.226562 25.291016 C 21.999744 25.107721 22.453125 25.539063 22.453125 25.539062 C 22.453125 25.539062 22.000017 24.677329 21 24.683594 z M 27 24.683594 C 25.999983 24.677329 25.546875 25.539062 25.546875 25.539062 C 25.546875 25.539063 26.000256 25.162408 26.773438 25.345703 C 27.179618 25.441994 28 25.726562 28 25.726562 C 28 25.726562 27.661325 24.687694 27 24.683594 z M 23.160156 28.589844 C 23.160156 28.589844 22.781798 28.68152 22.800781 28.824219 C 22.814561 28.927815 23.097656 28.919922 23.097656 28.919922 C 23.097656 28.919922 23.220316 28.76381 23.5 28.728516 C 23.358248 28.585952 23.160156 28.589844 23.160156 28.589844 z M 24.839844 28.589844 C 24.839844 28.589844 24.641752 28.585952 24.5 28.728516 C 24.779685 28.76381 24.902344 28.919922 24.902344 28.919922 C 24.902344 28.919922 25.185439 28.927815 25.199219 28.824219 C 25.218202 28.68152 24.839844 28.589844 24.839844 28.589844 z "
     id="path973" />
</svg>

<svg version="1.1" viewBox="0 0 48 48" xmlns="http://www.w3.org/2000/svg">
 <defs>
  <linearGradient id="bg" x2="0" y1="1" y2="47" gradientUnits="userSpaceOnUse">
   <stop style="stop-color:#83baf9" offset="0"/>
   <stop style="stop-color:#f98080" offset="1"/>
  </linearGradient>
 </defs>
 <path d="m36.31 5c5.859 4.062 9.688 10.831 9.688 18.5 0 12.426-10.07 22.5-22.5 22.5-7.669 0-14.438-3.828-18.5-9.688 1.037 1.822 2.306 3.499 3.781 4.969 4.085 3.712 9.514 5.969 15.469 5.969 12.703 0 23-10.298 23-23 0-5.954-2.256-11.384-5.969-15.469-1.469-1.475-3.147-2.744-4.969-3.781zm4.969 3.781c3.854 4.113 6.219 9.637 6.219 15.719 0 12.703-10.297 23-23 23-6.081 0-11.606-2.364-15.719-6.219 4.16 4.144 9.883 6.719 16.219 6.719 12.703 0 23-10.298 23-23 0-6.335-2.575-12.06-6.719-16.219z" style="opacity:.05"/>
 <path d="m41.28 8.781c3.712 4.085 5.969 9.514 5.969 15.469 0 12.703-10.297 23-23 23-5.954 0-11.384-2.256-15.469-5.969 4.113 3.854 9.637 6.219 15.719 6.219 12.703 0 23-10.298 23-23 0-6.081-2.364-11.606-6.219-15.719z" style="opacity:.1"/>
 <path d="m31.25 2.375c8.615 3.154 14.75 11.417 14.75 21.13 0 12.426-10.07 22.5-22.5 22.5-9.708 0-17.971-6.135-21.12-14.75a23 23 0 0 0 44.875-7 23 23 0 0 0-16-21.875z" style="opacity:.2"/>
 <circle cx="24" cy="24" r="23" style="fill:url(#bg)"/>
 <path d="m40.03 7.531c3.712 4.084 5.969 9.514 5.969 15.469 0 12.703-10.297 23-23 23-5.954 0-11.384-2.256-15.469-5.969 4.178 4.291 10.01 6.969 16.469 6.969 12.703 0 23-10.298 23-23 0-6.462-2.677-12.291-6.969-16.469z" style="opacity:.1"/>
 <path d="m24.996 13c-5.0579 0.27725-8.9037 4.0664-8.9961 9.5-1.6e-5 0.0033-1.6e-5 0.0065 0 0.0098v1.4863c-6e-6 2e-3 -6e-6 0.0039 0 0.0059 0.0031 1.1106 0.38644 2.184 1.0117 3.1465 9.26e-4 0.0053 0.0039 0.02344 0.0039 0.02344 0.0081 0.04898 0.01987 0.09729 0.03516 0.14453l0.94922 2.8456v0.83789c0 0.28355 0.05174 0.52004 0.10547 0.72461 6.56e-4 0.0026 0.0013 0.0052 2e-3 0.0078 0.01281 0.04707 0.02443 0.08693 0.03516 0.12109 4.26e-4 0.0014 0.0015 0.0025 2e-3 0.0039 5.2e-4 0.0017 0.0014 0.0042 2e-3 0.0059 0.41562 1.3534 1.4872 2.4641 2.4336 3.373 0.94873 0.91116 1.8184 1.5625 1.8184 1.5625 0.17334 0.13052 0.38443 0.20112 0.60142 0.20115h4c0.21704-7e-6 0.42818-0.07062 0.60156-0.20117 0 0 0.86963-0.65134 1.8184-1.5625 0.94639-0.90892 2.018-2.0197 2.4336-3.373l2e-3 -0.0059c0.01098-0.03491 0.02386-0.07632 0.03711-0.125 6.77e-4 -0.0026 0.0013-0.0052 2e-3 -0.0078 0.05363-0.20454 0.10537-0.44104 0.10537-0.72458v-0.83789l0.94922-2.8457c0.01614-0.04846 0.02855-0.09808 0.03711-0.14844 0 0-4.1e-5 -0.0037 0-0.0039 0.62959-0.96816 1.0141-2.0466 1.0137-3.1641 3.1e-5 -0.0046 3.1e-5 -0.0091 0-0.01367v-1.4864c-0.4719-5.1721-3.636-9.4191-8.998-9.5-2e-3 -6e-6 -0.0039-6e-6 -0.0059 0z" style="opacity:.1"/>
 <path d="m23.996 12c-5.0579 0.27725-8.9037 4.0664-8.9961 9.5-1.6e-5 0.0033-1.6e-5 0.0065 0 0.0098v1.4863c-6e-6 2e-3 -6e-6 0.0039 0 0.0059 0.0031 1.1106 0.38644 2.184 1.0117 3.1465 9.26e-4 0.0053 0.0039 0.02344 0.0039 0.02344 0.0081 0.04898 0.01987 0.09729 0.03516 0.14453l0.94922 2.8456v0.83789c0 0.28355 0.05174 0.52004 0.10547 0.72461 6.56e-4 0.0026 0.0013 0.0052 2e-3 0.0078 0.01281 0.04707 0.02443 0.08693 0.03516 0.12109 4.26e-4 0.0014 0.0015 0.0025 2e-3 0.0039 5.2e-4 0.0017 0.0014 0.0042 2e-3 0.0059 0.41562 1.3534 1.4872 2.4641 2.4336 3.373 0.94873 0.91116 1.8184 1.5625 1.8184 1.5625 0.17334 0.13052 0.38443 0.20112 0.60142 0.20115h4c0.21704-7e-6 0.42818-0.07062 0.60156-0.20117 0 0 0.86963-0.65134 1.8184-1.5625 0.94639-0.90892 2.018-2.0197 2.4336-3.373l2e-3 -0.0059c0.01098-0.03491 0.02386-0.07632 0.03711-0.125 6.77e-4 -0.0026 0.0013-0.0052 2e-3 -0.0078 0.053632-0.20454 0.10537-0.44104 0.10537-0.72458v-0.83789l0.94922-2.8457c0.01614-0.04846 0.02855-0.09808 0.03711-0.14844 0 0-4.1e-5 -0.0037 0-0.0039 0.62959-0.96816 1.0141-2.0466 1.0137-3.1641 3.1e-5 -0.0046 3.1e-5 -0.0091 0-0.01367v-1.4863c-0.4719-5.1721-3.636-9.4191-8.998-9.5-2e-3 -6e-6 -0.0039-6e-6 -0.0059 0z" style="fill:#2d2d2d"/>
 <ellipse cx="24" cy="21.5" rx="8" ry="8.5" style="fill:#f9f9f9;paint-order:stroke fill markers"/>
 <ellipse cx="24" cy="23" rx="8" ry="6" style="fill:#454545;paint-order:stroke fill markers"/>
 <path d="m24 19c-4 0-6 2-6 3v3s6.6e-5 -1-0.80078-1c-0.60593 0-0.19922 2-0.19922 2l1 3v1c0 2 4 5 4 5h4s4-3 4-5v-1l1-3s0.40671-2-0.19922-2c-0.80085 0-0.80078 1-0.80078 1v-3c0-1-2-3-6-3z" style="fill:#fdcb98"/>
 <path d="m23 21s0.5827 0.75391 1 0.75391 1-0.75391 1-0.75391-0.64393 0.375-1 0.375-1-0.375-1-0.375zm-1 1s1.2889 0.74219 2 0.74219 2-0.74219 2-0.74219-1.3244 0.32812-2 0.32812-2-0.32812-2-0.32812zm3.5137 5.8398 0.03125 1.1602 1.0254 1-1.0566-2.1602zm-3.0273 0.02539-1.084 2.1348 1.0332-1 0.050781-1.1348zm-4.4863 0.13477v2c0 1 1 2.25 2 3.25v-3.25s0-2-2-2zm12 0c-2 0-2 2-2 2v3.25c1-1 2-2.25 2-3.25v-2zm-6 3.3711c-1.3937-0.006555-1.6641 1.168-1.6641 1.168s1.01-0.26646 1.6641-0.25976c0.65404 0.006688 1.7441 0.20703 1.7441 0.20703s-0.35045-1.1086-1.7441-1.1152z" style="fill:#e9ba95"/>
 <path d="m19 20.496c-0.65516 0.53343-1 1.0992-1 1.5039v3 4 1c0 0.64651 0.43427 1.3948 1 2.1152v-11.619zm10 0v11.619c0.56573-0.72039 1-1.4687 1-2.1152v-1-4-3c0-0.40471-0.34484-0.97048-1-1.5039z" style="fill:#949596;paint-order:stroke fill markers"/>
 <path d="m20 23.316-1 0.68359v1l1 2h2l1-1 0.55078-1.5-3.5508-1.1836zm8 0-3.5508 1.1836 0.55078 1.5 1 1h2l1-2v-1l-1-0.68359zm-3 4.9453-1 0.26953-1-0.25195-0.56445 0.7207 0.56445 1h2l0.54492-1-0.54492-0.73828z" style="fill:#c79b68"/>
 <path d="m22 13.277c-1.0945 0.29888-2.1169 0.84072-3 1.5898v1.1328s1-1 3-1v-1.7227zm4 0.0039v1.7188c2 0 3 1 3 1v-1.127c-0.88293-0.74982-1.9054-1.2923-3-1.5918z" style="fill:#d6d6d6"/>
 <path d="m24 29.331c-0.53296 6.49e-4 -1.5643-0.33058-1.5643-0.33058s-1.4357 1-1.4357 2c0 0.62963 0.27612 0.58673 0.27612 0.58673s1.2609-1.1831 2.7239-1.1595c1.5644 0.02515 2.7862 1.1685 2.7862 1.1685s0.21384 0.01975 0.21384-0.59572c0-1-1.4543-2-1.4543-2s-1.0188 0.32994-1.5457 0.33058z" style="fill:#71513b"/>
 <path d="m20.332 23c-0.61907 0-1.332 1-1.332 1s0.52118-0.35509 1-0.35938c1-0.0089 2 0.85938 2 0.85938h1.5508s-2.0955-1.5-3.2188-1.5zm7.3359 0c-1.1232 0-3.2188 1.5-3.2188 1.5h1.5508s1-0.86828 2-0.85938c0.47882 0.004282 1 0.35938 1 0.35938s-0.71296-1-1.332-1z" style="fill:#71513b"/>
 <circle cx="21.5" cy="25.5" r=".5" style="fill:#1b4c96;paint-order:stroke fill markers"/>
 <circle transform="scale(-1,1)" cx="-26.5" cy="25.5" r=".5" style="fill:#1b4c96;paint-order:stroke fill markers"/>
 <path d="m21 24.684c-0.66132 0.0041-1 1.043-1 1.043s0.82038-0.33926 1.2266-0.43555c0.77318-0.1833 1.2266 0.24805 1.2266 0.24805 0 0-0.45311-0.86173-1.4531-0.85547zm6 0c-1-0.006265-1.4531 0.85547-1.4531 0.85547 0 1e-6 0.45338-0.37665 1.2266-0.19336 0.40618 0.096291 1.2266 0.38086 1.2266 0.38086s-0.33868-1.0389-1-1.043zm-3.8398 3.9062s-0.37836 0.091676-0.35938 0.23438c0.01378 0.1036 0.29688 0.095703 0.29688 0.095703s0.12266-0.15611 0.40234-0.19141c-0.14175-0.14256-0.33984-0.13867-0.33984-0.13867zm1.6797 0s-0.19809-0.003892-0.33984 0.13867c0.27968 0.035294 0.40234 0.19141 0.40234 0.19141s0.2831 0.007893 0.29688-0.095703c0.018983-0.1427-0.35938-0.23438-0.35938-0.23438z" style="fill:#2d2d2d;stroke-width:.9956"/>
</svg>
